X:WFS 13-12 06
T:Ding Dong! Merrily On High
M:4/4
K:G
[P:A] G2G2 AGFE | D4 D2D2 | E2G2 G2F2 | G4 G4 :|
[P:B] d3c BcdB | c3B ABcA | B3A GABG | A3G FGAF | G3F EFGE | F3E D2D2 | E2G2 G2F2 | G4 G4 :|

